X: 23610
T: Lilting Banshee, The
R: jig
M: 6/8
K: Adorian
|:EAA EAA|BAB G2A|Bee edB|dBA GED|
EAA EAA|BAB G2A|Bee edB|dBA A3:|
|:eaa age|dBA G2A|Bee edB|def gfg|
a3 age|dBA G2A|Bee edB|dBA A3:|

